X:3724
T:LNXLV1- Lenox Love to Blanter
O:england
S:Sinkler MS, via Glen's ESM, key sig., timing, corrected
Q:1/4=60
L:1/4
M:C
K:F
A/|F/4F/4F/ F/G/ A3/4G/4F/A/|G/4G/4G/ B/c/ d/c/d/f/|\
F/4F/4F/ F/G/ A3/4G/4F/A/|G3/4E/4F/C/DC/::f/|\
c/4c/4c/ c/f/ a3/4g/4f|g3/4f/4g/a/ g3/4f/4d/4f3/4|\
c/4c/4c/ c/f/ a3/4f/4g3/4f/4|a3/4f/4g/f/4f/4gf/4:|]


